X:86
T:Wednesday Polka
Q:1/4=100
M:4/4
R:Polka
Z:mheiman@northernroots.org
K:Em
%P:A
E2 E2 ccB2 | AG F G/A/ B/c/B A F |
E2 E2 ccB2 | AG FA G2 G2 :|
%P:B
G/A/B/c/ dB ce dB | cB A G/A/ B/c/B A2 |
G/A/B/c/ dB ce dB | cB A G/A/ G2 G2 :|

